assets/Bust in silhouette/Flat/bust_in_silhouette_flat.svg

<svg width="32" height="32" viewBox="0 0 32 32" fill="none" xmlns="http://www.w3.org/2000/svg">
<path d="M23.8095 28.93L24.5 26L23.8095 22.93C21.4177 20.7003 18.2694 19.4604 14.9995 19.4604C11.7295 19.4604 8.58125 20.7003 6.18945 22.93L5.5 26L6.18945 28.93H23.8095Z" fill="#321B41"/>
<path d="M16.3395 3.07001H13.6495C12.9377 3.0709 12.2343 3.22377 11.5863 3.51839C10.9383 3.81301 10.3607 4.2426 9.89205 4.77842C9.42345 5.31424 9.07465 5.94394 8.86899 6.62541C8.66333 7.30688 8.60555 8.02441 8.69951 8.73001L8.7776 9.93427C7.82134 10.0842 7.08984 10.9117 7.08984 11.91C7.08984 12.9964 7.95597 13.8804 9.03535 13.9093L9.14951 15.67C9.30217 16.8108 9.86387 17.8574 10.7302 18.6152C11.3366 19.1457 12.0635 19.5094 12.8398 19.6797V20.78C12.8398 21.3423 13.0632 21.8815 13.4608 22.2791C13.8584 22.6767 14.3976 22.9 14.9598 22.9C15.5221 22.9 16.0613 22.6767 16.4589 22.2791C16.8565 21.8815 17.0798 21.3423 17.0798 20.78V19.6984C17.8897 19.537 18.6492 19.166 19.2788 18.6152C20.1452 17.8574 20.7069 16.8108 20.8595 15.67L20.9688 13.9059C22.0133 13.8395 22.8398 12.9713 22.8398 11.91C22.8398 10.9334 22.1399 10.1203 21.2142 9.94502L21.2895 8.73001C21.3835 8.02441 21.3257 7.30688 21.12 6.62541C20.9144 5.94394 20.5656 5.31424 20.097 4.77842C19.6284 4.2426 19.0508 3.81301 18.4028 3.51839C17.7548 3.22377 17.0513 3.0709 16.3395 3.07001Z" fill="#533566"/>
<path d="M6.18961 22.92V28.92L2.59961 28.88C2.62367 28.7717 2.65372 28.6649 2.68961 28.56V28.45C3.36193 26.3366 4.56733 24.4321 6.18961 22.92Z" fill="#533566"/>
<path d="M23.8096 22.92V28.92L27.3996 28.88C27.3925 28.8604 27.385 28.8408 27.3776 28.8213C27.3434 28.7312 27.3096 28.6422 27.3096 28.56V28.45C26.6336 26.3383 25.4287 24.4347 23.8096 22.92Z" fill="#533566"/>
</svg>

<svg xmlns="http://www.w3.org/2000/svg" width="32" height="32" fill="none"><path fill="#321B41" d="M23.81 28.93 24.5 26l-.69-3.07a12.92 12.92 0 0 0-17.62 0L5.5 26l.69 2.93h17.62Z"/><path fill="#533566" d="M16.34 3.07h-2.69A5 5 0 0 0 8.7 8.73l.078 1.204a2 2 0 0 0 .257 3.975l.115 1.761a4.75 4.75 0 0 0 3.69 4.01v1.1a2.12 2.12 0 0 0 4.24 0v-1.082a4.75 4.75 0 0 0 3.78-4.028l.109-1.764a2 2 0 0 0 .245-3.961l.076-1.215a4.999 4.999 0 0 0-4.95-5.66ZM6.19 22.92v6l-3.59-.04c.024-.108.054-.215.09-.32v-.11a12.91 12.91 0 0 1 3.5-5.53ZM23.81 22.92v6l3.59-.04-.022-.059c-.035-.09-.068-.179-.068-.261v-.11a13 13 0 0 0-3.5-5.53Z"/></svg>
